public/images/file-maker/feature4.svg

<svg width="64" height="64" viewBox="0 0 64 64" fill="none" xmlns="http://www.w3.org/2000/svg">
<path d="M21.52 4.52072C11.3301 4.52072 3.04004 12.8108 3.04004 23.0007C3.04004 29.4392 6.41559 35.4263 11.8903 38.7751L12.4813 43.1368C12.761 45.2009 14.4706 46.7575 16.4582 46.7575H26.5818C28.5694 46.7575 30.279 45.2009 30.5586 43.1368L31.1495 38.7751C36.6243 35.4263 39.9998 29.4391 39.9998 23.0007C40 12.8108 31.7099 4.52072 21.52 4.52072ZM29.3868 36.9289C29.0487 37.1203 28.8197 37.4586 28.7675 37.8435L28.0955 42.803C27.984 43.6266 27.319 44.2718 26.5818 44.2718H16.4582C15.721 44.2718 15.0561 43.6266 14.9445 42.8028L14.2725 37.8434C14.2203 37.4585 13.9913 37.1201 13.6532 36.9288C8.64006 34.0907 5.52575 28.7537 5.52575 23.0006C5.52562 14.1813 12.7006 7.00631 21.52 7.00631C30.3394 7.00631 37.5144 14.1813 37.5144 23.0007C37.5144 28.7538 34.4001 34.0909 29.3868 36.9289Z" fill="#7F8284"/>
<path d="M28.0292 48.1664H15.0113C14.325 48.1664 13.7686 48.7228 13.7686 49.4092C13.7686 50.0956 14.325 50.652 15.0113 50.652H28.0292C28.7156 50.652 29.272 50.0956 29.272 49.4092C29.272 48.7228 28.7156 48.1664 28.0292 48.1664Z" fill="#7F8284"/>
<path d="M26.4524 52.0608H16.5865C15.9001 52.0608 15.3438 52.6172 15.3438 53.3036C15.3438 56.7088 18.1142 59.4793 21.5194 59.4793C24.9247 59.4793 27.6951 56.7088 27.6951 53.3036C27.6952 52.6172 27.1388 52.0608 26.4524 52.0608ZM21.5196 56.9937C19.9207 56.9937 18.556 55.9715 18.0447 54.5464H24.9944C24.4831 55.9715 23.1184 56.9937 21.5196 56.9937Z" fill="#7F8284"/>
<path fill-rule="evenodd" clip-rule="evenodd" d="M14.7751 13.4941C14.9746 13.0756 15.4482 12.8894 15.8608 13.0672L28.2126 18.3908C28.6089 18.5616 28.8226 19.0145 28.7117 19.4486L27.1935 25.3943L32.4765 27.7091C32.7774 27.841 32.9801 28.1414 32.9986 28.483C33.0171 28.8245 32.8482 29.1471 32.5635 29.3139L24.7577 33.8866C24.5008 34.037 24.1882 34.0378 23.9306 33.8887L13.4522 27.8203C13.2581 27.7079 13.1135 27.5206 13.0489 27.2981L10.0369 16.9134C9.93952 16.5776 10.0386 16.213 10.2901 15.9815C10.5417 15.75 10.8991 15.6945 11.2038 15.8395L15.4241 17.848C15.481 17.6502 15.6024 17.4764 15.7712 17.3599C16.0106 17.1946 16.3132 17.1666 16.5764 17.2855L20.2672 18.9522C20.5797 19.0933 20.7822 19.416 20.7822 19.773V20.2276L22.664 21.1415C22.9129 21.2625 23.0911 21.5017 23.1427 21.7844L24.4804 29.112L26.8722 19.7453L15.9452 15.0358L15.4471 16.0806L13.9233 15.2814L14.7751 13.4941ZM23.1641 31.4033L21.5516 22.5708L19.5725 21.6095C19.2713 21.4632 19.0785 21.1468 19.0785 20.7986V20.3612L17.0619 19.4505C17.0076 19.6615 16.8805 19.8472 16.701 19.9685C16.4577 20.1331 16.1513 20.1566 15.8876 20.0312L12.2151 18.2833L14.5782 26.4309L23.1641 31.4033ZM25.6867 31.2954L30.2028 28.6498L26.7487 27.1363L25.6867 31.2954Z" fill="#FF6B00"/>
</svg>

<svg xmlns="http://www.w3.org/2000/svg" width="64" height="64" fill="none" xmlns:v="https://vecta.io/nano"><path d="M21.52 4.521c-10.19 0-18.48 8.29-18.48 18.48 0 6.439 3.376 12.426 8.85 15.774l.591 4.362c.28 2.064 1.989 3.621 3.977 3.621h10.124c1.988 0 3.697-1.557 3.977-3.621l.591-4.362A18.53 18.53 0 0 0 40 23.001c0-10.19-8.29-18.48-18.48-18.48zm7.867 32.408a1.24 1.24 0 0 0-.619.915l-.672 4.959c-.111.824-.777 1.469-1.514 1.469H16.458c-.737 0-1.402-.645-1.514-1.469l-.672-4.959c-.052-.385-.281-.723-.619-.915-5.013-2.838-8.127-8.175-8.127-13.928 0-8.819 7.175-15.994 15.994-15.994s15.994 7.175 15.994 15.994c0 5.753-3.114 11.09-8.128 13.928zm-1.358 11.237H15.011c-.686 0-1.243.556-1.243 1.243s.556 1.243 1.243 1.243h13.018c.686 0 1.243-.556 1.243-1.243s-.556-1.243-1.243-1.243zm-1.577 3.895h-9.866c-.686 0-1.243.556-1.243 1.243 0 3.405 2.77 6.176 6.176 6.176s6.176-2.771 6.176-6.176c0-.686-.556-1.243-1.243-1.243zm-4.933 4.933c-1.599 0-2.964-1.022-3.475-2.447h6.95c-.511 1.425-1.876 2.447-3.475 2.447z" fill="#7f8284"/><path fill-rule="evenodd" d="M14.775 13.494c.2-.418.673-.605 1.086-.427l12.352 5.324c.396.171.61.624.499 1.058l-1.518 5.946 5.283 2.315c.301.132.504.432.522.774s-.15.664-.435.831l-7.806 4.573c-.257.15-.57.151-.827.002L13.452 27.82c-.194-.112-.339-.3-.403-.522l-3.012-10.385c-.097-.336.002-.7.253-.932a.82.82 0 0 1 .914-.142l4.22 2.008a.89.89 0 0 1 .347-.488c.239-.165.542-.193.805-.074l3.691 1.667c.313.141.515.464.515.821v.455l1.882.914c.249.121.427.36.479.643l1.338 7.328 2.392-9.367-10.927-4.709-.498 1.045-1.524-.799.852-1.787zm8.389 17.909l-1.613-8.833-1.979-.961c-.301-.146-.494-.463-.494-.811v-.437l-2.017-.911a.89.89 0 0 1-.361.518c-.243.165-.55.188-.813.063l-3.673-1.748 2.363 8.148 8.586 4.972zm2.523-.108l4.516-2.646-3.454-1.514-1.062 4.159z" fill="#ff6b00"/></svg>
